docs/assets/img/details/bathroom(1) copy.svg

<?xml version="1.0" encoding="UTF-8"?>
<svg width="39px" height="40px" viewBox="0 0 39 40" version="1.1" xmlns="http://www.w3.org/2000/svg" xmlns:xlink="http://www.w3.org/1999/xlink">
    <title>bathroom(1) copy</title>
    <g id="Welcome" stroke="none" stroke-width="1" fill="none" fill-rule="evenodd">
        <g id="lpw-sale-properties-detailed-page-1.1(expanded)" transform="translate(-379.000000, -931.000000)" fill="#000000" fill-rule="nonzero">
            <g id="bathroom(1)-copy" transform="translate(379.000000, 931.000000)">
                <path d="M30.0937251,38.2223307 L8.8511719,38.2223307 C3.97195815,38.2223307 2.84217094e-14,34.2333984 2.84217094e-14,29.3333333 L2.84217094e-14,21.3333333 L38.9445728,21.3333333 L38.9445728,29.3333333 C38.9445728,34.2333984 34.9726147,38.2223307 30.0937251,38.2223307 L30.0937251,38.2223307 Z M1.7701047,23.1110026 L1.7701047,29.3333333 C1.7701047,33.2555338 4.94566153,36.4443359 8.8511719,36.4443359 L30.0937251,36.4443359 C33.9992354,36.4443359 37.1744681,33.2555338 37.1744681,29.3333333 L37.1744681,23.1110026 L1.7701047,23.1110026 Z" id="Shape"></path>
                <polygon id="Path" points="10.6212766 37.3333333 12.3913813 37.3333333 12.3913813 40 10.6212766 40"></polygon>
                <polygon id="Path" points="26.5531915 37.3333333 28.3232962 37.3333333 28.3232962 40 26.5531915 40"></polygon>
                <path d="M7.080743,22.2223308 L5.3106383,22.2223308 L5.3106383,6.22233075 C5.3106383,2.788737 8.08750833,2.84217094e-14 11.506491,2.84217094e-14 C14.9251496,2.84217094e-14 17.7020196,2.788737 17.7020196,6.22233075 L17.7020196,7.11100258 L15.9319149,7.11100258 L15.9319149,6.22233075 C15.9319149,3.76660158 13.9514461,1.77766925 11.506491,1.77766925 C9.06121179,1.77766925 7.080743,3.76660158 7.080743,6.22233075 L7.080743,22.2223308 Z" id="Path"></path>
                <path d="M23.0126579,14.2223307 L10.6212766,14.2223307 L10.6212766,12.4443359 C10.6212766,9.01106767 13.3981466,6.22233075 16.8171293,6.22233075 C20.2357879,6.22233075 23.0126579,9.01106767 23.0126579,12.4443359 L23.0126579,14.2223307 Z M12.3913813,12.4443359 L21.2425532,12.4443359 C21.2425532,9.98893233 19.2620844,8 16.8171293,8 C14.3718501,8 12.3913813,9.98893233 12.3913813,12.4443359 Z" id="Shape"></path>
            </g>
        </g>
    </g>
</svg>

<svg width="39" height="40" xmlns="http://www.w3.org/2000/svg"><path d="M30.094 38.222H8.85c-4.878 0-8.85-3.989-8.85-8.889v-8h38.945v8c0 4.9-3.972 8.89-8.851 8.89zM1.77 23.111v6.222c0 3.923 3.176 7.111 7.081 7.111h21.243c3.905 0 7.08-3.188 7.08-7.11V23.11H1.77z"/><path d="M10.621 37.333h1.77V40h-1.77zm15.932 0h1.77V40h-1.77zM7.08 22.222H5.31v-16C5.31 2.79 8.089 0 11.507 0c3.42 0 6.196 2.789 6.196 6.222v.889h-1.77v-.889c0-2.455-1.98-4.444-4.426-4.444-2.445 0-4.425 1.989-4.425 4.444v16z"/><path d="M23.013 14.222H10.62v-1.778c0-3.433 2.777-6.222 6.196-6.222 3.419 0 6.196 2.79 6.196 6.222v1.778zM12.39 12.444h8.852C21.243 9.99 19.263 8 16.817 8c-2.445 0-4.426 1.989-4.426 4.444z"/></svg>
